X:1
T:Title
%%score { ( 1 2 ) | 3 }
L:1/8
Q:1/4=118
M:3/4
K:C
V:1 treble nm="Grand Piano"
V:2 treble 
V:3 treble 
V:1
 B4 z2 | B4 z2 | B6 | A6 | z2 ^F2 B2 | z2 ^F2 B2 | A6 | G2 ^F2 =F2 | E4 G2 | A2 G2 A2 | B4 B2 | %11
w: Wendell~P.~Loveless|||||||||||
 B6 | B4 z2 | z2 E2 B2 | A6 | G4 z2 |] %16
w: |||||
V:2
 z2 G2 c2 | z2 G2 c2 | x6 | x6 | A4 z2 | A4 z2 | x6 | x6 | x6 | x6 | x6 | z2 ^G2 G2 | z2 E2 A2 | %13
 G4 z2 | x6 | x6 |] %16
V:3
 G,2 D2 [DG]2 | G,2 D2 [DG]2 | D,2 E,2 F,2 | ^F,2 A,2 C2 | D,2[K:treble] C2 [C^F]2 | %5
 D,2 C2 [C^F]2 | D,2 E,2 ^F,2 | G,2 G,,2 G,2 | C,4 G,2 | C4 G,2 | G,,2 G,2 F,2 | E,2 [DE]2 [DE]2 | %12
 A,,2 G,2 [G,E]2 | A,,2 G,2 G,2 | D,2 E,2 ^F,2 | G,2 G,,2 z2 |] %16

